X:1
T:Markus-Passion
T:Nr. 1 Sonata (Chor)
%%score [ 1 2 3 4 ]
L:1/8
Q:1/4=120
M:4/4
K:Bb
V:1 treble nm="MusicXML Part"
V:2 treble nm="MusicXML Part"
V:3 treble-8 nm="MusicXML Part"
V:4 bass nm="MusicXML Part"
V:1
 z8 | z8 | z8 | z8 | z8 | z8 | z8 | z8 | z8 | z8 | z8 |"^Violine" gc cd/e/ de BA/G/ | d3 e A2 A2 | %13
w: ||||||||||||Je- sus Chri- stus,|
 z8 | z4 d3"^Reinhard Keiser 1674-1739" e |[M:4/4] A2 A2 BBBB | c2 cc d2 dd | c4 B2 z2 | z8 | %19
w: |Je- sus|Chri- stus ist um un- srer|Mis- se- tat wil- len ver-|wun- det,||
 z2 dd ^F3 A | (ce) (dc) B2 BB | (BA) A2 z2 z A | ^F2 F2 z4 | z8 | z8 | z4 z2 G2 | D2 d2 B3 B | %27
w: und um un- srer|Sün * den * wil- len zer-|schla * ­gen, zer-|schla- gen;|||die|Stra- fe liegt auf|
 A2 z2 z2 d2 | G2 g2 e3 e | dAA^F GGBB | cccc AA z G | D2 d2 B3 B | A2 (=e2- ed) (dA) | %33
w: ihm, die|Stra- fe liegt auf|ihm, auf daß wir Frie- den, daß wir|Frie- den, Frie- den hät- ten, die|Stra- fe liegt auf|ihm, liegt * * auf *|
 G z z G AAA=E | FF^FF G2 A2 | B2 B2 c2 de | (B2 A2) !fermata!G4 |] %37
w: ihm, auf daß wir Frie- den|hät- ten, und durch sei- ne|Wun ­den sind wir ge-|hei- * let.|
V:2
 z8 | z8 | z8 | z8 | z8 | z8 | z8 | z8 | z8 | z8 | z8 | z8 | G3 G ^F2 F2 | z8 | z4 (G^F) (GA) | %15
w: ||||||||||||Je- sus Chri- stus,||Je- * sus *|
[M:4/4] ^F2 F2 z4 | GG=FF F2 GG | G2 FF FF z2 | z8 | z2 DD C3 C | C3 D D2 DG | (G^F) F2 z2 z E | %22
w: Chri- stus|ist um un- srer Mis- se- tat|wil- len ver- wun- det,||und um un- srer|Sün ­den wil- len zer-|schla * ­gen, zer-|
 D2 D2 z4 | z8 | z2 D2 G,2 G2 | E3 E D2 z G | AAAA GGGG | =EE z ^C AAAA | DDDD EE z2 | %29
w: schla- gen;||die Stra- fe|liegt auf ihm, auf|daß wir Frie- den hät- ten, Frie- den|hät- ten, auf Frie- den hät- ten,|daß wir Frie- den hät- ten,|
 A^FFD DD z D | G,2 G2 ^F2 B2 | AAAA GG z G | AGA=E FF z2 | z2 z =E EEEE | DDDD D2 D2 | %35
w: daß wir Frie- den hät- ten, die|Stra- fe liegt auf|ihm, auf daß wir Frie- den, auf|daß wir Frie- den hät- ten,|auf daß wir Frie- den|hät- ten, und durch sei- ne|
 G2 G2 G2 GG | (G2 ^F2) !fermata!G4 |] %37
w: Wun ­den sind wir ge-|hei- * let.|
V:3
 z8 | z8 | z8 | z8 | z8 | z8 | z8 | z8 | z8 | z8 | z8 | z8 | B3 A (Ad) d2 | z8 | z4 (dc) (BA) | %15
w: ||||||||||||Je- sus Chri * stus,||Je- * sus *|
[M:4/4] d2 d2 z4 | BBAA (dc)BB | B2 AA BB z2 | z8 | z2 GG A3 A | A3 A B2 BB | (=eA) A2 z2 z A | %22
w: Chri- stus|ist um un- srer Mis * se- tat|wil- len ver- wun- det,||und um un- srer|Sün ­den wil- len zer-|schla * ­gen, zer-|
 A2 A2 z4 | z4 z2 z c | dcdA BB z B | cccA ^FF z B | dcdD G2 (=ed) | ^cc A2 D2 d2 | B3 B A2 z c | %29
w: schla- gen;|auf|daß wir Frie- den hät- ten, auf|daß wir Frie- den hät- ten, auf|daß wir Frie- den, Frie- den *|hät- ten, die Stra- fe|liegt auf ihm, auf|
 dcdA BB z2 | z2 z c dddd | dd z d dd=ee | =ee z A D2 d2 | B>B BB AA^cc | ddAA G2 d2 | %35
w: daß wir Frie- den hät- ten,|auf daß wir Frie- den|hät- ten, auf daß wir Frie- den|hät- ten, die Stra- fe|liegt auf ihm, auf daß wir Frie- den|hät- ten, und durch sei- ne|
 d2 d2 c2 BA | (d3 c) !fermata!B4 |] %37
w: Wun- den sind wir ge-|hei- * let.|
V:4
 z8 | z8 | z8 | z8 | z8 | z8 | z8 | z8 | z8 | z8 | z8 | z8 | G,2 (B,,C,) D,2 D,2 | z8 | %14
w: ||||||||||||Je- sus * Chri- stus,||
 z4 (G,,A,,) (B,,C,) |[M:4/4] D,2 D,2 z4 | E,C,F,F, (B,A,)G,F, | (E,C,)F,F,, B,,B,, z2 | z8 | %19
w: Je- * sus *|Chri- stus|ist um un- srer Mis * se- tat|wil * len ver- wun- det,||
 z2 B,B, A,3 G, | ^F,3 F, G,2 G,G, | ^C,2 =C,2 z2 z C, | D,2 D,2 z2 D,2 | G,,2 G,2 E,3 E, | %24
w: und um un- srer|Sün- den wil- len zer-|schla- gen, zer-|schla- gen; die|Stra- fe liegt auf|
 D,2 z ^F, G,F,G,G,, | C,C, z C, (D,2 G,2- | G,2) ^F,2 G,G, z G, | A,G,A,=E, F,F, z ^F, | %28
w: ihm, auf daß wir Frie- den|hät- ten, wir Frie- *|* den hät- ten, auf|daß wir Frie- den hät- ten, auf|
 G,G,G,G, (CB,) (A,G,) | ^F,F, z D, G,,2 G,2 | E,3 E, D,2 G,2- | G,2 ^F,2 G,2 z2 | %32
w: daß wir Frie- den, Frie * den *|hät- ten, die Stra- fe|liegt auf ihm, liegt|* auf ihm,|
 z2 z A, DA,^F,F, | G,F,=E,D, ^C,2 A,,2 | D,D,D,=C, B,,2 ^F,2 | (G,=F,) (E,D,) E,2 D,C, | %36
w: auf daß wir Frie- den,|daß wir Frie- den, Frie- den|hät- ten, und durch sei- ne|Wun * den * sind wir ge-|
 D,4 !fermata!G,,4 |] %37
w: hei- let.|

